X: 328
T: The Crooked Stovepipe
M:4/4
R:reel
L:1/8
Z:Alf Warnock - alf0@rogers.com
Z: a different version
K:G
dB|:G2B2 BcdB|G2B2 B2dB|G2B2 e2Bc|d2c2 cdcA|
F2A2 ABcA|F2A2 A2 [1dd| d2^cd e2d2|B4 B2dB:|[2 A/B/c/d/|ddd2 e2f2|g4 g2a2||
b3b b2a2|g4 g2 (3fgf|e2 d2 (3cdc B2|A4 f2g2|
a2a2 abag|f2d2 f3e|d2^cd e2d2| B4 g2a2||
a2b2 b2a2|g4 g2 (3fgf|e2d2 (3cdc B2|A4 f2g2|
a2a2 abag|f2d2 f3e|d2B2 cB A2| G4 G2|]
